X: 4
T: Feeding The Birds
Z: JACKB
S: https://thesession.org/tunes/2779#setting26612
R: reel
M: 4/4
L: 1/8
K: Gmaj
GF|:DGGA B2ag|efdc AGGF|DGGA B2AG| AdcA G3F|
DGGA B2ag|efdc AGGF|DGGA B2AG| AdcA G4||
|:fgag fdde|f3d cAG2|fgag fdd2|dgfa g3a|
b2af gfde|f3d cAGF|DGGA B2AG|1 AdcA G4:|2 AdcA G3F||
